packages/elements/bolt-icon/src/svgs/mobility.svg

<svg enable-background="new 0 0 32 32" viewBox="0 0 32 32" xmlns="http://www.w3.org/2000/svg"><path clip-rule="evenodd" d="m14.6 27.4c-.7-.6-.8-1.7-.2-2.4.4-.8 1.5-1.1 2.3-.7.9.2 1.4 1.2 1.2 2.1-.1 1-.7 1.5-1.8 1.6-.6.1-1.1-.2-1.5-.6zm9.4-5.4h-16v6c0 .5.2 1.1.6 1.4.4.4.9.6 1.4.6h12c.5 0 1.1-.2 1.4-.6.4-.4.6-.9.6-1.4zm0-18c0-.5-.2-1.1-.6-1.4-.4-.4-.9-.6-1.4-.6h-12c-.5 0-1.1.2-1.4.6-.4.4-.6.9-.6 1.4v16h16zm2 0v24c-.1 2.2-1.8 3.9-4 4h-12c-1.1 0-2.1-.4-2.8-1.2-.8-.7-1.2-1.7-1.2-2.8v-24c0-1.1.4-2.1 1.2-2.8.7-.8 1.7-1.2 2.8-1.2h12c1.1 0 2.1.4 2.8 1.2.8.7 1.2 1.7 1.2 2.8z" fill="#151619" fill-rule="evenodd"/></svg>

<?xml version="1.0" encoding="utf-8"?>
<!-- Generator: Adobe Illustrator 25.2.0, SVG Export Plug-In . SVG Version: 6.00 Build 0)  -->
<svg version="1.1" id="Layer_1" xmlns="http://www.w3.org/2000/svg" xmlns:xlink="http://www.w3.org/1999/xlink" x="0px" y="0px"
	 viewBox="0 0 32 32" style="enable-background:new 0 0 32 32;" xml:space="preserve">
<style type="text/css">
	.st0{fill-rule:evenodd;clip-rule:evenodd;fill:#151619;}
</style>
<path class="st0" d="M14.6,27.4c-0.7-0.6-0.8-1.7-0.2-2.4c0.4-0.8,1.5-1.1,2.3-0.7l0,0c0.9,0.2,1.4,1.2,1.2,2.1c0,0,0,0,0,0
	c-0.1,1-0.7,1.5-1.8,1.6C15.5,28.1,15,27.8,14.6,27.4z M24,22H8v6c0,0.5,0.2,1.1,0.6,1.4C9,29.8,9.5,30,10,30h12
	c0.5,0,1.1-0.2,1.4-0.6C23.8,29,24,28.5,24,28V22z M24,4c0-0.5-0.2-1.1-0.6-1.4C23,2.2,22.5,2,22,2H10C9.5,2,8.9,2.2,8.6,2.6
	C8.2,3,8,3.5,8,4v16h16V4z M26,4v24c-0.1,2.2-1.8,3.9-4,4H10c-1.1,0-2.1-0.4-2.8-1.2C6.4,30.1,6,29.1,6,28V4c0-1.1,0.4-2.1,1.2-2.8
	C7.9,0.4,8.9,0,10,0h12c1.1,0,2.1,0.4,2.8,1.2C25.6,1.9,26,2.9,26,4z"/>
</svg>
